X:1
T:Polska (261)
R:Polska
S:Efter Magnus Theorin
S:Knd genom Sgskra
B:Smlndsk Musiktradition nr 261
O:Vxj, Smland
M:3/4
L:1/8
K:Dm
DE FE FE|Dg fe d2|ce AG FE|DD/2E/2 FE FE|
D3/2g/2 fe d2|c=B/2c/2 d2d2:|ab ga fg|ed gf ed|
ce AG FE|ab/2a/2 ga/2g/2 fg/2f/2|ed gf ed|c=B/2c/2 d2d2:|
